X:0618
T:Mrs. Christie's Rant.
M:C
L:1/8
Q:1/2=104
N:needs some trick to make sound playback not to make the upbeats shift
I: :: :|
Z:Jack Campin * www.campin.me.uk * 2009
K:A Dorian
c/d/|eAec     e(AA)c/d/|eAec     e(GG)c/d/|eAeA     eAec|Bgdg BGG:|
B   |Aa g/a/b a>cec    |ca g/a/b fddB     |Aa g/a/b afge|fdec dGG:|
<end>
<start>
